X: 32998
T: Pretty Maggie Morrissey
R: hornpipe
M: 4/4
K: Gmajor
|:Bc|dBGB|cAFA|G2 (3AGF GABc|dg g2 efge|dBGB A2 (3ABc|dBGB cAFA|GDBD GABc|dg g2 ecAF|
G2 (3AGF G2:|:Bc|dg g2 efge|dg g2 eg g2|dg g2 efga|bgdB A2 Bc|dBGB cAFA|BGGF GABc|
dg g2 ecAF|G2 (3AGF G2:|

